images/advanced-threesvg.svg

<svg width="88" height="88" viewBox="0 0 88 88" fill="none" xmlns="http://www.w3.org/2000/svg">
<circle cx="44" cy="44" r="44" fill="#3A3054"/>
<path fill-rule="evenodd" clip-rule="evenodd" d="M67.6084 26.0201C67.3272 25.8487 66.9782 25.8308 66.6808 25.9728L59.0566 29.5643C56.3686 30.8303 54.5647 33.4392 54.3292 36.4011L54.1326 38.8368L50.1822 45.3982V42.5966C50.1822 42.5922 50.1811 42.588 50.1799 42.5838C50.1787 42.5794 50.1775 42.575 50.1775 42.5699C50.176 42.4736 50.1606 42.3777 50.131 42.2857L48.293 36.7717L52.0459 29.2684C52.2107 28.9344 52.1726 28.5356 51.9474 28.2386L46.047 20.3713C45.6896 19.937 45.0476 19.8747 44.6129 20.2321C44.562 20.2739 44.5155 20.3207 44.4737 20.3713L38.573 28.2386C38.3496 28.5367 38.3133 28.9351 38.4796 29.2684L42.2325 36.7717L40.3945 42.2857C40.3648 42.3777 40.3495 42.4736 40.348 42.5699V42.5966V46.5213L34.2213 37.2221C34.2173 37.2167 34.2123 37.2123 34.2074 37.2082C34.2028 37.2042 34.1983 37.2004 34.1949 37.1958C34.1356 37.1137 34.0645 37.0416 33.9836 36.9812C33.976 36.9756 33.9686 36.9697 33.9612 36.9638L33.9612 36.9637C33.9506 36.9552 33.94 36.9466 33.9283 36.939C33.9185 36.9325 33.9128 36.9275 33.9079 36.9233C33.9032 36.9192 33.8993 36.9157 33.8932 36.9123L30.2878 34.8275L28.7911 32.5559L26.6275 29.2713C26.3792 28.8948 25.9065 28.7355 25.4809 28.885L21.6544 30.2271C21.1428 30.4091 20.8751 30.9713 21.0571 31.4829C21.0835 31.5579 21.119 31.629 21.1629 31.6953L23.8681 35.8023L25.3601 38.0728L25.8515 42.2092C25.8541 42.2224 25.8574 42.2356 25.8614 42.2484C25.8658 42.2693 25.8709 42.2901 25.8772 42.3103C25.8995 42.4143 25.9387 42.5142 25.9932 42.6054C25.9967 42.6104 25.9985 42.6161 26.0002 42.6217C26.0019 42.6274 26.0037 42.6331 26.0072 42.638L26.6711 43.6439L26.6719 43.6451C29.531 47.9772 40.6405 64.8107 40.7021 64.863C41.4214 66.7523 43.233 68.0007 45.2545 68C45.6559 67.9996 46.0558 67.9509 46.4454 67.8546C47.7125 67.5437 48.8027 66.7395 49.4733 65.62L62.5525 43.9223L64.6176 42.6153C65.7026 41.9254 66.613 40.9941 67.2788 39.894C68.1237 38.4947 68.5346 36.8757 68.4588 35.2428L68.0753 26.8228C68.0636 26.494 67.8886 26.1926 67.6084 26.0201ZM60.4856 43.5444L58.964 46.0709L53.9103 43.0226L55.4337 40.4961L60.4856 43.5444ZM42.3149 43.5799V58.4463L48.2153 48.6604V43.5799H42.3149ZM44.0076 37.6795H46.5231L47.8337 41.613H42.6965L44.0076 37.6795ZM44.2818 29.8122C44.2818 30.3553 44.722 30.7955 45.2651 30.7955C45.8082 30.7955 46.2488 30.3553 46.2488 29.8122C46.2488 29.2691 45.8082 28.8289 45.2651 28.8289C44.722 28.8289 44.2818 29.2691 44.2818 29.8122ZM45.2651 22.6008L50.0142 28.9322L46.6241 35.7126H46.2484V32.5815C47.7847 32.0384 48.59 30.3527 48.0465 28.8165C47.5034 27.2802 45.8181 26.4753 44.2818 27.0184C42.7456 27.5615 41.9407 29.2471 42.4837 30.7834C42.7807 31.6235 43.4418 32.2845 44.2818 32.5815V35.7126H43.9061L40.5161 28.9322L45.2651 22.6008ZM31.2407 38.0088L31.53 37.818L29.1009 36.4117C28.9691 36.3352 28.8567 36.2293 28.7724 36.1019L27.6906 34.4598L26.0485 35.5416L27.13 37.1837C27.2142 37.3111 27.2673 37.4561 27.2856 37.6077L27.6189 40.3946L31.2407 38.0088ZM25.408 30.9921L26.6077 32.8144L24.9657 33.8962L23.4906 31.6641L25.408 30.9921ZM33.1153 39.1231L30.6566 40.7469L28.1931 42.3714L40.348 60.8212V50.0952L33.1153 39.1231ZM47.7916 64.5983C46.9578 65.9983 45.1472 66.4575 43.7472 65.6237C42.3471 64.7902 41.8883 62.9792 42.7218 61.5792L42.7271 61.5707L42.7397 61.5499L50.1654 49.2346H50.1822V49.2082L52.8944 44.709L55.4209 46.2353L57.951 47.7555L47.7916 64.5983ZM63.5706 40.9472C64.3975 40.4221 65.0918 39.7124 65.599 38.8745C66.2435 37.8066 66.5567 36.5717 66.4992 35.3263L66.3959 33.0642L64.0986 33.6336C62.6082 33.9987 61.4542 35.1783 61.1217 36.6765C61.0214 37.1254 60.6229 37.4448 60.163 37.4455C60.0905 37.4455 60.0183 37.4371 59.9476 37.4206C59.4177 37.302 59.0845 36.7764 59.2031 36.2465C59.6957 34.0185 61.4118 32.2644 63.6284 31.7231L66.0103 31.1328C66.1073 31.1134 66.2069 31.1093 66.3054 31.1199L66.1802 28.3792L59.8865 31.3422C57.8375 32.3079 56.4624 34.2965 56.2822 36.5545L56.12 38.6196L58.972 40.3368L61.8237 42.0536L63.5706 40.9472Z" fill="#2BD0D0"/>
</svg>

<svg width="88" height="88" fill="none" xmlns="http://www.w3.org/2000/svg"><circle cx="44" cy="44" r="44" fill="#3A3054"/><path fill-rule="evenodd" clip-rule="evenodd" d="M67.608 26.02a.975.975 0 0 0-.927-.047l-7.624 3.591a8.283 8.283 0 0 0-4.728 6.837l-.196 2.436-3.95 6.561v-2.801a.047.047 0 0 0-.003-.013.978.978 0 0 0-.049-.298l-1.838-5.514 3.753-7.504a.984.984 0 0 0-.099-1.03l-5.9-7.867a1.02 1.02 0 0 0-1.573 0l-5.901 7.868a.984.984 0 0 0-.093 1.03l3.753 7.503-1.838 5.514a.974.974 0 0 0-.047.284v3.951l-6.127-9.299a.083.083 0 0 0-.014-.014l-.012-.012a.993.993 0 0 0-.234-.232c-.01-.009-.021-.017-.033-.025l-.02-.016-.015-.01-3.605-2.085-1.497-2.272-2.163-3.285a.983.983 0 0 0-1.147-.386l-3.827 1.342a.983.983 0 0 0-.491 1.468l2.705 4.107 1.492 2.27.492 4.137a.375.375 0 0 0 .01.04c.004.02.009.041.015.061a.974.974 0 0 0 .116.295c.004.005.006.011.007.017a.054.054 0 0 0 .007.016l.664 1.006v.001c2.86 4.332 13.97 21.166 14.031 21.218A4.87 4.87 0 0 0 45.255 68c.4 0 .8-.05 1.19-.145a4.886 4.886 0 0 0 3.028-2.235l13.08-21.698 2.065-1.307a8.344 8.344 0 0 0 2.66-2.721 8.259 8.259 0 0 0 1.18-4.651l-.383-8.42a.983.983 0 0 0-.467-.803Zm-7.122 17.524-1.522 2.527-5.054-3.048 1.524-2.527 5.052 3.048Zm-18.171.036v14.866l5.9-9.786v-5.08h-5.9Zm1.693-5.9h2.515l1.31 3.933h-5.136l1.31-3.934Zm.274-7.868a.983.983 0 1 0 1.966 0 .983.983 0 0 0-1.966 0Zm.983-7.211 4.75 6.331-3.39 6.78h-.377v-3.13a2.95 2.95 0 1 0-1.966 0v3.13h-.376l-3.39-6.78 4.75-6.331ZM31.241 38.009l.289-.191-2.43-1.406a.99.99 0 0 1-.328-.31l-1.081-1.642-1.642 1.082 1.081 1.642a.982.982 0 0 1 .156.424l.333 2.787 3.622-2.386Zm-5.833-7.017 1.2 1.822-1.642 1.082-1.475-2.232 1.917-.672Zm7.707 8.131-2.458 1.624-2.464 1.624 12.155 18.45V50.095l-7.233-10.972Zm14.677 25.475a2.95 2.95 0 1 1-5.07-3.019l.005-.008.013-.021 7.425-12.315h.017v-.027l2.712-4.499 2.527 1.526 2.53 1.52-10.16 16.843Zm15.779-23.65a6.304 6.304 0 0 0 2.929-5.62l-.104-2.264-2.297.57a4.032 4.032 0 0 0-2.977 3.042.984.984 0 1 1-1.919-.43 5.987 5.987 0 0 1 4.425-4.523l2.382-.59a.974.974 0 0 1 .295-.013l-.125-2.74-6.294 2.962a6.318 6.318 0 0 0-3.604 5.212l-.162 2.066 2.852 1.717 2.852 1.717 1.747-1.107Z" fill="#2BD0D0"/></svg>
